X:1
T:Title
%%score 1 2
L:1/8
Q:1/4=80
M:7/4
K:F
V:1 treble nm="Strings 1, Soprano"
V:2 bass nm="Strings 1, Bass"
V:1
 z2 z2 z2 z2 z2 z [DA][DF][DE] | D3 [DE][DF][EB] [EB]2 [FA]3 [FA][EG][DF] | %2
w: 1.~This~ wan ton~|world~ in~ gross est~ er ror~ Is~ hast 'ning~|
 [EG]3 [Ec][Dc][EB] [FB]2 [FA]3 [DF][DF][CE] | D3 C[CF][FA] [DB]2 D3 [DB][FA][EG] | %4
w: toward~ the~ judg ment~ morn ing;~ 'Twill~ meet~ the~|Judge~ in~ deep est~ ter ror,~ For,~ blind ed,~|
 [FA]3 [CF][CE][CF] [CG]2 [CF]3 CDC | [CA]3 [Fc][Fc][Fc] [Ec]2 D3 [GB][FA][EG] | %6
w: it~ de spised~ His~ warn ing.~ * * *||
 [FA]3 F[EG]F [Fd]2 [Ec]3 [CA][DB][Fc] | [Fd]3 [EG][FA][FB] [Fc]2 [CF]3 [EB][FA][DG] | %8
w: ||
 [CA]3 C[B,D][B,F] [CG]2 [CF]4 z2[Q:1/4=79][Q:1/4=78][Q:1/4=76][Q:1/4=75][Q:1/4=74][Q:1/4=73][Q:1/4=72][Q:1/4=71][Q:1/4=69][Q:1/4=68][Q:1/4=67][Q:1/4=66][Q:1/4=65][Q:1/4=64][Q:1/4=62][Q:1/4=61][Q:1/4=60] |] %9
w: |
V:2
 z2 z2 z2 z2 z2 z [D,A,][A,,A,][A,,A,] | %1
 [D,A,]3 [E,B,][F,A,][G,B,] [G,B,]2 [A,D]3 [A,D][G,C][F,B,] | %2
 [C,C]3 [C,C][C,C][C,B,] [F,D]2 [F,C]3 [F,A,][D,A,][A,,A,] | %3
 [D,A,]3 [E,B,][F,A,][D,A,] [D,B,]2 [D,D]3 [E,B,][F,C][G,B,] | %4
 [F,C]3 [C,A,][C,G,][C,A,] [C,B,]2 [F,A,]3 C,D,C, | %5
 [F,A,]3 [A,C][A,C][A,C] [G,C]2 [F,B,]3 [C,B,][F,A,][G,B,] | %6
 [F,C]3 [F,A,][C,B,][C,A,] [B,,F,]2 [C,G,]3 [A,,F,][B,,F,][C,A,] | %7
 [D,B,]3 [C,C][F,C][F,D] [A,C]2 [F,C]3 [C,C][C,C][F,B,] | %8
 [F,A,]3 [A,,F,][B,,F,][B,,F,] [C,G,]2 [F,A,]4 z2 |] %9

